; generated by Slic3r 1.3.0 on 2023-10-11 at 20:01:48

; external perimeters extrusion width = 0.55mm (7.28mm^3/s)
; perimeters extrusion width = 0.70mm (11.44mm^3/s)
; infill extrusion width = 0.63mm (13.45mm^3/s)
; solid infill extrusion width = 0.70mm (3.81mm^3/s)
; top infill extrusion width = 0.70mm (2.86mm^3/s)

M107
M104 S200 ; set temperature
G28 ; home all axes
G1 Z5 F5000 ; lift nozzle

; Filament gcode

M109 S200 ; set temperature and wait for it to be reached
G21 ; set units to millimeters
G90 ; use absolute coordinates
M82 ; use absolute distances for extrusion
G92 E0
G1 Z0.350 F7800.000
G1 E-2.00000 F2400.00000
G92 E0
G1 X62.541 Y62.812 F7800.000
G1 E2.00000 F2400.00000
G1 F1800
G1 X63.436 Y61.926 E2.03498
G1 X64.911 Y60.730 E2.08773
G1 X66.421 Y59.829 E2.13657
G1 X94.592 Y47.797 E2.98749
G1 X95.936 Y47.386 E3.02653
G1 X98.661 Y46.865 E3.10359
G1 X101.452 Y46.936 E3.18114
G1 X102.202 Y47.123 E3.20262
G1 X104.682 Y47.812 E3.27412
G1 X105.453 Y48.079 E3.29680
G1 X133.531 Y59.808 E4.14205
G1 X135.089 Y60.730 E4.19233
G1 X136.564 Y61.926 E4.24508
G1 X137.459 Y62.812 E4.28006
G1 X138.665 Y64.284 E4.33292
G1 X139.690 Y66.038 E4.38936
G1 X152.111 Y97.738 E5.33508
G1 X152.396 Y98.659 E5.36188
G1 X152.807 Y100.444 E5.41274
G1 X152.971 Y101.714 E5.44831
G1 X153.028 Y103.581 E5.50020
G1 X152.877 Y105.178 E5.54477
G1 X152.495 Y106.903 E5.59385
G1 X152.441 Y107.122 E5.60010
G1 X151.815 Y108.727 E5.64797
G1 X139.056 Y131.872 E6.38209
G1 X138.460 Y132.769 E6.41200
G1 X137.281 Y134.258 E6.46477
G1 X135.716 Y135.668 E6.52329
G1 X133.996 Y136.776 E6.58010
G1 X133.153 Y137.284 E6.60747
G1 X105.943 Y151.946 E7.46602
G1 X104.064 Y152.614 E7.52143
G1 X101.339 Y153.135 E7.59848
G1 X98.548 Y153.064 E7.67603
G1 X97.798 Y152.877 E7.69751
G1 X95.318 Y152.188 E7.76902
G1 X94.005 Y151.665 E7.80827
G1 X66.889 Y137.307 E8.66057
G1 X66.110 Y136.842 E8.68577
G1 X64.284 Y135.668 E8.74606
G1 X62.719 Y134.258 E8.80458
G1 X61.540 Y132.769 E8.85735
G1 X60.944 Y131.872 E8.88726
G1 X48.185 Y108.727 E9.62138
G1 X47.559 Y107.122 E9.66924
G1 X47.505 Y106.903 E9.67550
G1 X47.123 Y105.178 E9.72458
G1 X46.972 Y103.581 E9.76916
G1 X47.029 Y101.714 E9.82104
G1 X47.193 Y100.444 E9.85661
G1 X47.604 Y98.659 E9.90747
G1 X47.889 Y97.738 E9.93427
G1 X60.310 Y66.038 E10.87999
G1 X61.335 Y64.284 E10.93643
G1 X62.493 Y62.870 E10.98721
G1 E8.98721 F2400.00000
G92 E0
G1 X99.901 Y118.697 F7800.000
G1 E2.00000 F2400.00000
G1 F1800
G1 X98.900 Y121.523 E2.08329
G1 X98.746 Y121.857 E2.09350
G1 X98.086 Y123.867 E2.15227
G1 X98.186 Y124.436 E2.16831
G1 X98.291 Y126.514 E2.22611
G1 X99.427 Y129.112 E2.30488
G1 X100.662 Y130.853 E2.36416
G1 X102.826 Y132.237 E2.43550
G1 X103.051 Y132.412 E2.44343
G1 X105.145 Y134.214 E2.52018
G1 X106.069 Y136.128 E2.57922
G1 X106.144 Y136.722 E2.59585
G1 X106.069 Y136.440 E2.60397
G1 X104.724 Y134.764 E2.66365
G1 X102.491 Y132.812 E2.74605
G1 X100.404 Y131.696 E2.81178
G1 X100.160 Y131.491 E2.82063
G1 X98.236 Y130.101 E2.88656
G1 X96.813 Y128.291 E2.95052
G1 X95.567 Y126.126 E3.01989
G1 X94.893 Y123.917 E3.08405
G1 X94.695 Y120.569 E3.17721
G1 X95.225 Y117.429 E3.26569
G1 X94.436 Y116.725 E3.29506
G1 X93.902 Y116.414 E3.31221
G1 X92.944 Y114.692 E3.36696
G1 X92.058 Y111.405 E3.46152
G1 X90.949 Y109.673 E3.51864
G1 X87.901 Y107.984 E3.61545
G1 X87.561 Y107.685 E3.62801
G1 X87.008 Y107.673 E3.64338
G1 X84.828 Y107.322 E3.70471
G1 X82.709 Y107.455 E3.76370
G1 X82.332 Y107.516 E3.77429
G1 X80.535 Y108.139 E3.82713
G1 X78.161 Y109.794 E3.90751
G1 X76.919 Y112.456 E3.98912
G1 X77.124 Y116.291 E4.09580
G1 X77.981 Y119.400 E4.18536
G1 X78.595 Y122.362 E4.26940
G1 X78.652 Y125.132 E4.34638
G1 X78.494 Y122.232 E4.42707
G1 X77.380 Y119.086 E4.51977
G1 X76.291 Y116.246 E4.60427
G1 X76.016 Y112.825 E4.69959
G1 X76.817 Y110.454 E4.76911
G1 X79.540 Y107.675 E4.87719
G1 X84.437 Y104.564 E5.03835
G1 X87.060 Y102.925 E5.12427
G1 X88.139 Y102.304 E5.15884
G1 X88.512 Y101.684 E5.17893
G1 X89.853 Y100.698 E5.22517
G1 X88.391 Y99.620 E5.27562
G1 X87.788 Y98.988 E5.29990
G1 X87.192 Y98.878 E5.31673
G1 X85.565 Y98.379 E5.36400
G1 X81.401 Y98.336 E5.47969
G1 X78.573 Y98.772 E5.55916
G1 X76.026 Y99.526 E5.63296
G1 X74.262 Y100.371 E5.68728
G1 X72.758 Y101.783 E5.74460
G1 X71.392 Y103.200 E5.79928
G1 X72.491 Y101.811 E5.84848
G1 X74.535 Y99.869 E5.92681
G1 X76.793 Y98.353 E6.00234
G1 X77.031 Y98.249 E6.00957
G1 X79.289 Y97.064 E6.08041
G1 X82.029 Y95.926 E6.16282
G1 X85.625 Y94.846 E6.26712
G1 X87.536 Y94.568 E6.32076
G1 X90.678 Y93.511 E6.41285
G1 X87.732 Y91.653 E6.50963
G1 X87.611 Y91.610 E6.51318
G1 X86.987 Y91.217 E6.53367
G1 X83.475 Y90.040 E6.63655
G1 X80.059 Y88.155 E6.74493
G1 X78.093 Y86.692 E6.81300
G1 X77.154 Y84.455 E6.88040
G1 X77.025 Y82.417 E6.93711
G1 X77.783 Y79.654 E7.01671
G1 X78.062 Y78.431 E7.05155
G1 X78.084 Y82.310 E7.15930
G1 X78.681 Y84.397 E7.21961
G1 X80.056 Y85.894 E7.27608
G1 X81.551 Y86.652 E7.32263
G1 X83.889 Y87.168 E7.38913
G1 X87.140 Y87.145 E7.47944
G1 X90.949 Y87.016 E7.58530
G1 X93.441 Y86.645 E7.65529
G1 X96.176 Y85.325 E7.73964
G1 X100.249 Y82.959 E7.87047
G1 X100.725 Y82.597 E7.88709
G1 X103.572 Y80.734 E7.98161
G1 X105.435 Y77.645 E8.08181
G1 X105.245 Y75.317 E8.14670
G1 X105.184 Y74.882 E8.15891
G1 X104.694 Y73.393 E8.20245
G1 X104.433 Y72.862 E8.21887
G1 X102.723 Y71.338 E8.28251
G1 X101.363 Y70.431 E8.32791
G1 X98.952 Y69.033 E8.40534
G1 X96.551 Y67.771 E8.48069
G1 X94.855 Y66.100 E8.54682
G1 X93.935 Y63.997 E8.61056
G1 X93.847 Y63.286 E8.63047
G1 X93.924 Y63.582 E8.63895
G1 X95.193 Y65.252 E8.69723
G1 X97.136 Y67.018 E8.77015
G1 X99.234 Y68.003 E8.83454
G1 X102.101 Y69.308 E8.92205
G1 X104.006 Y70.354 E8.98242
G1 X106.171 Y71.845 E9.05543
G1 X108.288 Y74.157 E9.14250
G1 X109.065 Y77.099 E9.22702
G1 X108.867 Y80.405 E9.31902
G1 X108.173 Y83.440 E9.40552
G1 X108.897 Y85.332 E9.46179
G1 X112.817 Y87.068 E9.58087
G1 X116.268 Y87.451 E9.67733
G1 X118.537 Y86.914 E9.74209
G1 X119.939 Y86.129 E9.78675
G1 X121.298 Y84.652 E9.84247
G1 X121.894 Y82.538 E9.90349
G1 X121.886 Y80.433 E9.96199
G1 X121.911 Y78.462 E10.01674
G1 X122.195 Y79.771 E10.05395
G1 X122.918 Y82.393 E10.12952
G1 X122.955 Y82.600 E10.13535
G1 X122.823 Y84.723 E10.19445
G1 X121.889 Y87.057 E10.26428
G1 X120.277 Y88.558 E10.32545
G1 X117.097 Y90.240 E10.42538
G1 X113.120 Y91.196 E10.53899
G1 X112.037 Y91.836 E10.57395
G1 X111.174 Y92.150 E10.59947
G1 X111.197 Y94.142 E10.65482
G1 X112.464 Y94.568 E10.69194
G1 X114.375 Y94.846 E10.74558
G1 X117.971 Y95.926 E10.84988
G1 X120.711 Y97.064 E10.93229
G1 X122.969 Y98.249 E11.00313
G1 X123.207 Y98.353 E11.01036
G1 X125.465 Y99.869 E11.08589
G1 X127.509 Y101.811 E11.16422
G1 X128.608 Y103.200 E11.21342
G1 X127.242 Y101.783 E11.26810
G1 X125.738 Y100.371 E11.32541
G1 X123.974 Y99.526 E11.37974
G1 X121.427 Y98.772 E11.45353
G1 X118.599 Y98.336 E11.53300
G1 X114.435 Y98.379 E11.64869
G1 X112.808 Y98.878 E11.69597
G1 X112.212 Y98.988 E11.71279
G1 X111.609 Y99.620 E11.73708
G1 X110.147 Y100.698 E11.78753
G1 X111.488 Y101.684 E11.83377
G1 X111.861 Y102.304 E11.85386
G1 X112.940 Y102.925 E11.88843
G1 X115.563 Y104.564 E11.97435
G1 X120.460 Y107.675 E12.13550
G1 X123.183 Y110.454 E12.24358
G1 X123.984 Y112.825 E12.31310
G1 X123.709 Y116.246 E12.40842
G1 X122.620 Y119.086 E12.49293
G1 X121.506 Y122.232 E12.58562
G1 X121.348 Y125.132 E12.66631
G1 X121.405 Y122.362 E12.74329
G1 X122.019 Y119.400 E12.82733
G1 X122.876 Y116.291 E12.91689
G1 X123.081 Y112.456 E13.02357
G1 X121.839 Y109.794 E13.10517
G1 X119.465 Y108.139 E13.18555
G1 X117.668 Y107.516 E13.23840
G1 X117.291 Y107.455 E13.24899
G1 X115.172 Y107.322 E13.30798
G1 X112.992 Y107.673 E13.36931
G1 X112.439 Y107.685 E13.38468
G1 X112.099 Y107.984 E13.39724
G1 X108.882 Y109.767 E13.49940
G1 X108.167 Y112.009 E13.56477
G1 X107.060 Y114.648 E13.64427
G1 X107.036 Y114.750 E13.64718
G1 X106.098 Y116.694 E13.70713
G1 X105.127 Y117.505 E13.74229
G1 X103.897 Y118.035 E13.77950
G1 X102.996 Y118.299 E13.80558
G1 X99.976 Y118.688 E13.89017
G1 X100.315 Y119.210 F7800.000
G1 F1800
G1 X99.420 Y121.735 E13.96459
G1 X99.269 Y122.063 E13.97462
G1 X98.663 Y123.909 E14.02859
G1 X98.744 Y124.374 E14.04169
G1 X98.846 Y126.384 E14.09760
G1 X99.918 Y128.835 E14.17191
G1 X101.056 Y130.439 E14.22656
G1 X103.150 Y131.778 E14.29559
G1 X103.406 Y131.977 E14.30461
G1 X105.591 Y133.848 E14.38452
G1 X106.614 Y135.967 E14.44986
G1 X106.907 Y138.271 E14.51439
G1 X106.401 Y141.660 E14.60957
G1 X104.522 Y144.049 E14.69399
G1 X102.519 Y145.422 E14.76145
G1 X100.127 Y145.880 E14.82910
G1 X97.431 Y145.142 E14.90673
G1 X96.104 Y144.148 E14.95281
G1 X95.154 Y142.869 E14.99705
G1 X94.625 Y141.214 E15.04533
G1 X94.546 Y139.094 E15.10426
G1 X95.324 Y137.516 E15.15315
G1 X96.505 Y136.557 E15.19539
G1 X95.495 Y137.709 E15.23795
G1 X95.327 Y138.168 E15.25153
G1 X94.751 Y139.418 E15.28975
G1 X94.811 Y141.381 E15.34429
G1 X95.272 Y142.290 E15.37259
G1 X95.394 Y142.586 E15.38151
G1 X96.462 Y143.900 E15.42853
G1 X98.043 Y144.814 E15.47926
G1 X100.170 Y145.256 E15.53960
G1 X102.564 Y144.818 E15.60721
G1 X104.730 Y143.318 E15.68040
G1 X105.921 Y140.782 E15.75822
G1 X105.985 Y138.309 E15.82695
G1 X105.557 Y136.698 E15.87323
G1 X104.318 Y135.154 E15.92824
G1 X102.170 Y133.277 E16.00749
G1 X100.088 Y132.163 E16.07306
G1 X99.815 Y131.934 E16.08296
G1 X97.844 Y130.510 E16.15052
G1 X96.347 Y128.606 E16.21779
G1 X95.049 Y126.351 E16.29006
G1 X94.337 Y124.017 E16.35784
G1 X94.131 Y120.539 E16.45463
G1 X94.620 Y117.641 E16.53627
G1 X94.105 Y117.181 E16.55545
G1 X93.487 Y116.821 E16.57531
G1 X92.420 Y114.904 E16.63625
G1 X91.539 Y111.635 E16.73032
G1 X90.553 Y110.095 E16.78110
G1 X87.575 Y108.446 E16.87565
G1 X87.344 Y108.242 E16.88421
G1 X86.957 Y108.233 E16.89497
G1 X84.801 Y107.886 E16.95564
G1 X82.771 Y108.013 E17.01212
G1 X82.470 Y108.062 E17.02059
G1 X80.792 Y108.644 E17.06993
G1 X78.606 Y110.168 E17.14396
G1 X77.486 Y112.567 E17.21749
G1 X77.681 Y116.201 E17.31858
G1 X78.526 Y119.268 E17.40696
G1 X79.155 Y122.298 E17.49294
G1 X79.216 Y125.290 E17.57605
G1 X78.651 Y126.944 E17.62460
G1 X77.748 Y128.507 E17.67475
G1 X75.950 Y130.106 E17.74159
G1 X73.980 Y131.062 E17.80241
G1 X72.306 Y131.118 E17.84896
G1 X70.253 Y130.755 E17.90685
G1 X68.375 Y129.555 E17.96875
G1 X67.385 Y128.305 E18.01306
G1 X66.612 Y126.333 E18.07189
G1 X66.625 Y124.572 E18.12080
G1 X67.209 Y123.077 E18.16540
G1 X66.885 Y124.308 E18.20077
G1 X66.822 Y126.151 E18.25200
G1 X67.503 Y128.047 E18.30795
G1 X68.456 Y129.221 E18.34995
G1 X69.977 Y130.324 E18.40214
G1 X72.075 Y130.778 E18.46177
G1 X73.821 Y130.671 E18.51035
G1 X75.617 Y129.820 E18.56557
G1 X76.905 Y128.506 E18.61668
G1 X77.733 Y126.983 E18.66483
G1 X78.102 Y125.347 E18.71140
G1 X77.939 Y122.343 E18.79498
G1 X76.853 Y119.281 E18.88523
G1 X75.738 Y116.371 E18.97178
G1 X75.448 Y112.755 E19.07255
G1 X76.327 Y110.153 E19.14884
G1 X79.184 Y107.236 E19.26227
G1 X84.138 Y104.089 E19.42529
G1 X86.772 Y102.444 E19.51155
G1 X87.733 Y101.891 E19.54236
G1 X88.089 Y101.299 E19.56154
G1 X88.907 Y100.698 E19.58974
G1 X88.019 Y100.043 E19.62038
G1 X87.508 Y99.506 E19.64097
G1 X87.059 Y99.424 E19.65364
G1 X85.479 Y98.939 E19.69956
G1 X81.441 Y98.898 E19.81173
G1 X78.696 Y99.321 E19.88887
G1 X76.228 Y100.051 E19.96037
G1 X74.583 Y100.839 E20.01104
G1 X73.152 Y102.183 E20.06556
G1 X71.224 Y104.182 E20.14272
G1 X69.614 Y105.681 E20.20381
G1 X67.608 Y107.325 E20.27588
G1 X66.006 Y108.275 E20.32760
G1 X63.762 Y109.065 E20.39368
G1 X62.439 Y109.397 E20.43157
G1 X59.870 Y109.331 E20.50295
G1 X58.477 Y108.997 E20.54275
G1 X56.936 Y108.209 E20.59083
G1 X55.786 Y107.252 E20.63239
G1 X54.680 Y105.274 E20.69535
G1 X54.326 Y103.690 E20.74042
G1 X54.377 Y102.018 E20.78690
G1 X54.742 Y100.430 E20.83214
G1 X55.553 Y99.070 E20.87613
G1 X56.620 Y98.013 E20.91786
G1 X58.125 Y97.321 E20.96388
G1 X60.223 Y97.056 E21.02261
G1 X61.815 Y97.632 E21.06964
G1 X62.053 Y97.699 E21.07651
G1 X62.246 Y97.873 E21.08371
G1 X62.059 Y97.743 E21.09003
G1 X61.651 Y97.635 E21.10176
G1 X60.163 Y97.115 E21.14555
G1 X58.165 Y97.345 E21.20141
G1 X57.026 Y98.043 E21.23852
G1 X55.851 Y99.122 E21.28285
G1 X55.020 Y100.596 E21.32985
G1 X54.611 Y101.917 E21.36825
G1 X54.497 Y103.313 E21.40716
G1 X54.750 Y104.703 E21.44641
G1 X55.836 Y106.884 E21.51407
G1 X57.137 Y107.902 E21.55996
G1 X58.395 Y108.640 E21.60048
G1 X59.684 Y109.003 E21.63768
G1 X61.633 Y109.090 E21.69186
G1 X62.831 Y108.846 E21.72583
G1 X64.668 Y108.229 E21.77965
G1 X66.347 Y107.321 E21.83268
G1 X68.535 Y105.659 E21.90901
G1 X70.321 Y103.648 E21.98371
G1 X72.076 Y101.432 E22.06224
G1 X74.183 Y99.430 E22.14298
G1 X76.522 Y97.859 E22.22123
G1 X76.788 Y97.743 E22.22931
G1 X79.051 Y96.555 E22.30029
G1 X81.840 Y95.397 E22.38419
G1 X85.503 Y94.297 E22.49044
G1 X87.405 Y94.021 E22.54382
G1 X89.381 Y93.356 E22.60171
G1 X87.485 Y92.160 E22.66397
G1 X87.365 Y92.117 E22.66751
G1 X86.745 Y91.727 E22.68786
G1 X83.248 Y90.556 E22.79028
G1 X79.755 Y88.627 E22.90114
G1 X77.635 Y87.050 E22.97452
G1 X76.600 Y84.584 E23.04881
G1 X76.460 Y82.376 E23.11027
G1 X76.520 Y82.093 E23.11833
G1 X77.239 Y79.516 E23.19263
G1 X77.743 Y77.301 E23.25575
G1 X78.558 Y74.381 E23.33996
G1 X78.817 Y71.405 E23.42292
G1 X78.419 Y69.597 E23.47435
G1 X77.632 Y68.086 E23.52168
G1 X76.568 Y67.071 E23.56251
G1 X75.016 Y66.414 E23.60934
G1 X72.782 Y65.948 E23.67274
G1 X70.971 Y66.283 E23.72389
G1 X69.461 Y66.798 E23.76821
G1 X68.314 Y67.765 E23.80987
G1 X67.339 Y68.977 E23.85309
G1 X66.879 Y70.862 E23.90699
G1 X66.893 Y72.416 E23.95014
G1 X67.202 Y73.639 E23.98520
G1 X66.629 Y72.168 E24.02907
G1 X66.631 Y70.677 E24.07050
G1 X67.139 Y68.803 E24.12441
G1 X68.145 Y67.576 E24.16849
G1 X69.403 Y66.555 E24.21350
G1 X71.071 Y65.894 E24.26333
G1 X72.746 Y65.625 E24.31046
G1 X74.942 Y65.977 E24.37224
G1 X76.758 Y66.843 E24.42814
G1 X78.012 Y67.992 E24.47539
G1 X78.836 Y69.575 E24.52495
G1 X79.308 Y71.407 E24.57749
G1 X79.174 Y74.439 E24.66180
G1 X78.611 Y77.505 E24.74839
G1 X78.645 Y80.270 E24.82521
G1 X78.645 Y82.231 E24.87969
G1 X79.184 Y84.116 E24.93412
G1 X80.401 Y85.440 E24.98408
G1 X81.742 Y86.119 E25.02584
G1 X83.948 Y86.606 E25.08861
G1 X87.129 Y86.584 E25.17696
G1 X90.898 Y86.456 E25.28172
G1 X93.274 Y86.102 E25.34845
G1 X95.912 Y84.829 E25.42983
G1 X99.937 Y82.492 E25.55910
G1 X100.401 Y82.138 E25.57530
G1 X103.158 Y80.334 E25.66682
G1 X104.861 Y77.510 E25.75844
G1 X104.687 Y75.378 E25.81785
G1 X104.636 Y75.009 E25.82821
G1 X104.174 Y73.605 E25.86927
G1 X103.978 Y73.208 E25.88156
G1 X102.379 Y71.782 E25.94107
G1 X101.067 Y70.907 E25.98489
G1 X98.681 Y69.524 E26.06148
G1 X96.209 Y68.221 E26.13911
G1 X94.381 Y66.415 E26.21049
G1 X93.389 Y64.147 E26.27925
G1 X93.093 Y61.769 E26.34582
G1 X93.599 Y58.338 E26.44215
G1 X95.478 Y55.950 E26.52655
G1 X97.481 Y54.578 E26.59399
G1 X99.873 Y54.120 E26.66165
G1 X102.569 Y54.858 E26.73928
G1 X103.896 Y55.852 E26.78536
G1 X104.846 Y57.131 E26.82960
G1 X105.375 Y58.786 E26.87788
G1 X105.454 Y60.900 E26.93663
G1 X104.674 Y62.486 E26.98573
G1 X103.495 Y63.443 E27.02791
G1 X104.505 Y62.291 E27.07047
G1 X104.673 Y61.832 E27.08405
G1 X105.249 Y60.582 E27.12228
G1 X105.188 Y58.619 E27.17681
G1 X104.728 Y57.711 E27.20510
G1 X104.606 Y57.414 E27.21402
G1 X103.538 Y56.100 E27.26105
G1 X101.957 Y55.186 E27.31177
G1 X99.830 Y54.744 E27.37212
G1 X97.436 Y55.182 E27.43972
G1 X95.270 Y56.681 E27.51289
G1 X94.079 Y59.218 E27.59074
G1 X94.015 Y61.705 E27.65986
G1 X94.439 Y63.332 E27.70655
G1 X95.608 Y64.872 E27.76027
G1 X97.451 Y66.546 E27.82941
G1 X99.470 Y67.493 E27.89137
G1 X102.353 Y68.806 E27.97937
G1 X104.301 Y69.876 E28.04111
G1 X106.533 Y71.414 E28.11640
G1 X108.795 Y73.881 E28.20938
G1 X109.633 Y77.053 E28.30051
G1 X109.425 Y80.484 E28.39599
G1 X108.758 Y83.399 E28.47906
G1 X109.337 Y84.914 E28.52411
G1 X112.965 Y86.520 E28.63430
G1 X116.233 Y86.883 E28.72566
G1 X118.331 Y86.386 E28.78554
G1 X119.587 Y85.683 E28.82553
G1 X120.794 Y84.371 E28.87504
G1 X121.333 Y82.462 E28.93016
G1 X121.325 Y80.430 E28.98659
G1 X121.361 Y77.541 E29.06684
G1 X120.826 Y74.443 E29.15418
G1 X120.692 Y71.407 E29.23861
G1 X121.163 Y69.575 E29.29114
G1 X121.988 Y67.992 E29.34071
G1 X123.242 Y66.843 E29.38796
